contours/at.svg

<?xml version="1.0" encoding="UTF-8" standalone="no"?>
<svg width="1980px" height="1013px" viewBox="0 0 1980 1013" version="1.1" xmlns="http://www.w3.org/2000/svg" xmlns:xlink="http://www.w3.org/1999/xlink" xmlns:sketch="http://www.bohemiancoding.com/sketch/ns">
    <title>austria</title>
    <description>Created with Sketch (http://www.bohemiancoding.com/sketch)</description>
    <defs></defs>
    <g id="SVG" stroke="none" stroke-width="1" fill="none" fill-rule="evenodd" sketch:type="MSPage">
        <path d="M874.109375,402.498047 L872.128906,389.755859 L851.125,367.382813 L847.662109,348.695313 L852.365234,346.583984 L863.275391,337.564453 L873.441406,332.230469 L878.035156,318.228516 L890.277344,316.617187 L900.667969,312.042969 L913.892578,297.335938 L942.544922,288.927734 L950.101563,282 L978.179688,280.519531 L998.775391,267.798828 L1012.74023,252.351563 L1022.87305,225.533203 L1022.87305,212.791016 L1024.72461,198.585938 L1023.24219,182.378906 L1040.17188,171.507812 L1054.2832,177.210938 L1066.52734,179.693359 L1072.10156,184.767578 L1079.26953,192.806641 L1090.90039,196.269531 L1098.32617,182.044922 L1105.38281,179.564453 L1111.07031,174.619141 L1113.05078,164.339844 L1119.34766,157.912109 L1116.25586,131.259766 L1119.71875,127.166016 L1112.18164,119 L1121.8125,103.181641 L1139.01758,107.644531 L1151.37109,115.554688 L1161.50195,122.351563 L1164.9668,128.408203 L1171.15234,137.556641 L1166.74414,153.015625 L1181.13477,164.802734 L1220.94727,165.802734 L1252.98633,180.603516 L1264.77344,167.53125 L1273.06445,168.052734 L1280.87891,145.695312 L1294.16602,152.425781 L1305.04297,157.419922 L1317.63477,152.404297 L1322.99609,157.091797 L1330.63672,158.134766 L1335.8457,168.337891 L1343.22852,167.337891 L1344.76953,128.068359 L1348.375,118.927734 L1365.84961,111.287109 L1374.18359,91.1875 L1404.83398,95.1816406 L1405.20312,67.3417969 L1414.86328,42.2675781 L1408.98047,16.6113281 L1416.96875,0.89453125 L1452.24414,4.13085938 L1453.80664,15.8808594 L1458.64648,26.6464844 L1473.53906,22.1328125 L1483.33203,22.1328125 L1488.51953,6.046875 L1492.27734,11.1933594 L1504.7168,10.6933594 L1522.43359,21.5898438 L1537.7832,21.0703125 L1544.68555,31.4453125 L1562.35547,39.4121094 L1576.91992,41.1484375 L1587.12305,54.4765625 L1611.52344,55.8652344 L1617.96875,47.2460937 L1629.53906,49.484375 L1692.92187,95.5253906 L1749.87695,95.6347656 L1762.48828,94.09375 L1778.38086,90.2734375 L1783.24219,68.8261719 L1798.28516,69.1738281 L1804.99414,66.7421875 L1827.5957,78.0078125 L1837.27734,76.4042969 L1845.22266,83.9394531 L1846.08984,91.515625 L1858.05078,91.515625 L1870.12109,95.6621094 L1884.88086,95.1425781 L1898.16797,97.3984375 L1904.39648,107.775391 L1912.21094,140.314453 L1915.85742,156.574219 L1916.20508,163.935547 L1903.24414,181.347656 L1895.08398,195.740234 L1892.30469,206.441406 L1892.82617,215.625 L1891.80469,226 L1894.92969,234.140625 L1906.45898,247.080078 L1910.10547,259.539062 L1920.30859,268.201172 L1921.85156,278.882812 L1926.71289,293.621094 L1928.9707,305.019531 L1938.30078,309.257812 L1953.19336,322.933594 L1960.8125,332.880859 L1960.8125,343.736328 L1961.50586,358.953125 L1976.55078,360.167969 L1979.63281,369.113281 L1969.73633,380.378906 L1968.69531,386.587891 L1965.04883,401.347656 L1965.91602,412.050781 L1957.4707,419.107422 L1950.24023,422.732422 L1955.60156,433.935547 L1958.72852,442.576172 L1958.18555,449.804687 L1959.74805,453.0625 L1961.48438,463.070312 L1961.48438,470.884766 L1966.17383,480.761719 L1955.64453,483.519531 L1929.20312,492.005859 L1917.61133,492.527344 L1910.57617,488.728516 L1898.11523,498.625 L1880.48828,497.583984 L1874.82031,481.824219 L1864.29102,477.677734 L1855.82422,475.941406 L1849.28906,472.357422 L1839.95508,474.441406 L1831.31445,475.308594 L1826.47461,482.408203 L1820.74414,486.533203 L1811.04102,497.757813 L1801.26953,500.494141 L1798.85938,508.222656 L1811.32617,516.648438 L1824.1543,513.521484 L1840.67773,521.447266 L1850.20508,519.537109 L1860.20703,525.945312 L1861.25,542.03125 L1871.64648,553.144531 L1871.64648,557.832031 L1867.30664,564.410156 L1861.35352,567.515625 L1861.875,579.626953 L1854.0625,588.830078 L1845.5957,597.775391 L1841.31641,604.943359 L1826.25195,604.943359 L1821.36328,608.875 L1810.61914,601.755859 L1809.25,616.693359 L1804.21484,627.939453 L1813.00781,633.148438 L1817.17578,644.330078 L1817.69531,651.560547 L1818.8418,662.392578 L1809.13281,667.732422 L1808.61133,676.699219 L1804.70312,681.476562 L1807.13281,690.617188 L1812.23828,698.285156 L1813.80078,710.529297 L1827.82422,702.388672 L1831.12305,711.917969 L1826.95508,719.017578 L1819.37695,722.121094 L1818.50977,728.330078 L1822.76758,736.476562 L1831.75391,736.476562 L1831.60156,743.511719 L1817.59961,749.416016 L1817.59961,754.736328 L1825.34961,759.556641 L1819.16211,763.986328 L1777.02539,764.486328 L1762.58594,776.384766 L1748.08398,796.574219 L1732.3457,812.855469 L1720.92773,822.974609 L1708.17773,832.826172 L1698.03906,833.521484 L1697.53906,870.076172 L1701.12305,876.568359 L1706.78906,879.695312 L1710.41406,885.925781 L1711.41406,899.390625 L1699.30273,889.320312 L1691.83594,886.369141 L1681.4375,881.160156 L1666.52539,876.296875 L1650.91992,879.423828 L1640.89062,882.722656 L1631.90234,887.5625 L1621.375,887.5625 L1614.18555,886.173828 L1603.11523,893.119141 L1587.57031,896.765625 L1581.05664,901.607422 L1581.05664,911.572266 L1568.24805,914.351562 L1562.42969,917.435547 L1554.11523,910.142578 L1546.82227,906.84375 L1528.30664,910.316406 L1512.1582,909.099609 L1501.28125,913.267578 L1487.08398,910.316406 L1472.23437,908.773438 L1453.54492,911.009766 L1445.38477,911.878906 L1435.0293,924.929688 L1425.91016,918.525391 L1417.0957,923.539062 L1399.85352,929.78125 L1393.83789,945.802734 L1387.76172,964.167969 L1365.87695,973.134766 L1354.80469,984.59375 L1343.81836,992.498047 L1333.67773,996.449219 L1332.98438,1003.50586 L1326.40625,1012.82031 L1319.91211,1010.36719 L1310.42578,999.837891 L1303.32617,1000.35938 L1288.19336,997.927734 L1284.19922,991.71875 L1257.04297,997.927734 L1216.21094,994.650391 L1198.14648,978.912109 L1183.27539,978.042969 L1172.53125,979.085938 L1150.91602,966.0625 L1135.52539,970.056641 L1120.11328,970.056641 L1105.74219,963.285156 L1085.35742,963.285156 L1070.81445,954.603516 L1057.3125,955.644531 L1050.23438,951.824219 L1036.73242,951.302734 L1022.03711,951.302734 L1012.57031,945.941406 L994.400391,952.193359 L983.023438,952.693359 L970.195312,949.566406 L950.984375,942.294922 L938.351562,936.064453 L907.683594,934.501953 L865.046875,932.591797 L858.621094,922.716797 L846.746094,916.505859 L838.800781,922.910156 L826.25,912.464844 L794.730469,914.201172 L784.070312,907.103516 L765.748047,902.935547 L753.287109,894.794922 L748.314453,886.113281 L742.064453,872.9375 L732.230469,868.8125 L723.894531,864.470703 L721.638672,857.609375 L721.638672,850.074219 L726.457031,844.060547 L714.435547,822.537109 L702.863281,828.072266 L696.523438,819.882812 L684.083984,814 L687.513672,803.839844 L681.785156,795.525391 L680.394531,771.058594 L700.105469,768.800781 L705.96875,751.972656 L700.933594,746.957031 L678.054687,749.041016 L661.427734,757.355469 L645.494141,762.001953 L629.193359,764.605469 L618.683594,773.941406 L602.537109,779.84375 L586.929688,781.927734 L584.152344,791.304688 L577.726563,789.220703 L564.287109,781.470703 L548.181641,779.40625 L540.972656,776.802734 L522.259766,782.533203 L510.667969,772.023438 L495.298828,789.978516 L473.740234,780.316406 L430.324219,789.326172 L419.279297,800.285156 L407.470703,810.835938 L406.949219,821.90625 L400.894531,833.783203 L397.248047,843.3125 L386.001953,860.814453 L377.189453,859.771484 L358.457031,859.771484 L346.732422,860.292969 L331.648438,855.779297 L320.361328,848.660156 L310.527344,849.701172 L320.076172,834.003906 L307.095703,835.220703 L297.955078,821.738281 L286.363281,823.302734 L268.867187,829.185547 L247.177734,825.232422 L240.365234,810.724609 L248.505859,795.181641 L238.324219,785.693359 L228.335938,776.726562 L223.537109,772.96875 L215.591797,768.996094 L199.964844,791.201172 L192.429688,796.347656 L183.984375,796.347656 L181.03125,806.376953 L174.607422,814.148438 L151.486328,824.003906 L138.158203,820.011719 L129.080078,812.128906 L120.787109,802.792969 L111.257812,798.453125 L102.097656,797.083984 L91.046875,791.027344 L88.4433594,782.171875 L92.9160156,770.060547 L92.9160156,765.414062 L88.0957031,756.640625 L79.2402344,756.140625 L66.3222656,747.021484 L56.4453125,745.980469 L36.9082031,737.1875 L21.4746094,740.138672 L27.5527344,708.425781 L14.2871094,695.292969 L10.8769531,677.574219 L4.53515625,671.365234 L14.390625,663.919922 L0.931640625,655.800781 L20.53125,635.875 L24.3515625,617.53125 L36.4648438,619.767578 L44.2363281,613.017578 L37.40625,595.794922 L36.0175781,586.585938 L20.8222656,579.833984 L18.2382812,571.347656 L29.1347656,566.658203 L40.1640625,568.353516 L52.4296875,563.685547 L60.375,552.484375 L73.3359375,540.085938 L80.4335938,540.085938 L82.8652344,549.767578 L87.3789062,552.892578 L94.8242188,556.867188 L108.195312,554.783203 L116.703125,563.095703 L123.455078,569.347656 L125.34375,579.160156 L136.109375,580.160156 L141.992188,589.537109 L152.714844,594.226562 L152.214844,604.060547 L144.964844,607.859375 L148.068359,614.894531 L148.416016,626.119141 L165.197266,622.994141 L183.386719,619.867188 L183.386719,625.882812 L177.308594,639.599609 L177.308594,649.955078 L169.517578,657.185547 L168.996094,665.152344 L186.318359,664.630859 L224.914062,633.744141 L228.886719,625.146484 L240.304688,615.136719 L252.091797,601.441406 L250.548828,590.390625 L239.652344,570.791016 L244.146484,559.740234 L237.763672,551.121094 L254.931641,547.126953 L254.931641,559.609375 L274.859375,566.859375 L288.6875,554.400391 L298.564453,557.177734 L310.482422,556.136719 L314.455078,561.845703 L324.615234,564.796875 L326.462891,573.158203 L335.277344,572.117188 L359.849609,565.171875 L362.28125,573.269531 L352.925781,585.320312 L367.90625,586.861328 L382.101562,605.572266 L376.761719,620.748047 L416.205078,622.136719 L434.568359,608.789062 L449.9375,609.830078 L445.271484,621.318359 L462.246094,620.970703 L478.873047,600.828125 L495.716797,600.828125 L490.570312,594.333984 L501.988281,580.375 L537.152344,577.595703 L538.714844,561.837891 L556.412109,548.917969 L565.207031,553.064453 L591.037109,552.023438 L607.142578,556.710938 L612.546875,546.597656 L647.001953,542.257812 L699.919922,546.015625 L697.490234,537.222656 L695.427734,510.871094 L716.394531,500.167969 L713.810547,514.802734 L733.869141,511.349609 L752.712891,514.996094 L764.457031,513.066406 L764.457031,523.03125 L779.265625,539.3125 L794.617188,532.832031 L807.861328,519.914062 L841.984375,521.283203 L849.410156,530.076172 L860.458984,543.230469 L855.3125,553.390625 L854.792969,562.552734 L857.722656,569.283203 L869.835938,569.783203 L895.130859,598.896484 L905.779297,596.189453 L910.578125,599.835938 L923.947266,590.111328 L915.871094,579.214844 L923.253906,568.011719 L920.300781,558.871094 L926.490234,552.857422 L927.011719,544.738281 L934.283203,537.292969 L934.802734,521.226562 L913.140625,505.121094 L905.542969,508.246094 L885.220703,509.789063 L882.636719,499.105469 L893.818359,485.167969 L893.818359,477.027344 L911.599609,456.794922 L910.230469,447.134766 L901.089844,437.472656 L891.755859,417.804688 L883.677734,410.767578 L876.080078,408.878906 L874.109375,402.498047 Z M874.109375,402.498047" id="Path-1" fill="#000000" sketch:type="MSShapeGroup"></path>
    </g>
</svg>

<svg xmlns="http://www.w3.org/2000/svg" width="1980" height="1013" viewBox="0 0 1980 1013"><title>austria</title><path fill-rule="evenodd" d="m874.1 402.5-2-12.7-21-22.4-3.4-18.7 4.7-2.1 10.9-9 10.1-5.4 4.6-14 12.3-1.6 10.4-4.6 13.2-14.7 28.6-8.4 7.6-6.9 28-1.5 20.7-12.7 14-15.4 10-26.9v-12.7l2-14.2-1.6-16.2 17-10.9 14 5.7 12.3 2.5 5.6 5 7.2 8.1 11.6 3.5 7.4-14.3 7-2.4 5.8-5 2-10.3 6.2-6.4-3-26.6 3.4-4.1-7.5-8.2 9.6-15.8 17.2 4.4 12.4 8 10.1 6.8 3.5 6 6.2 9.2-4.5 15.4 14.4 11.8 39.8 1 32 14.8 11.9-13 8.3.5 7.8-22.4 13.3 6.7 10.8 5 12.6-5 5.4 4.7 7.6 1 5.2 10.2 7.4-1 1.6-39.2 3.6-9.2 17.5-7.6 8.3-20.1 30.6 4 .4-27.9 9.7-25-6-25.7 8-15.7 35.3 3.2 1.6 11.8 4.8 10.7 15-4.5h9.7l5.2-16 3.8 5 12.4-.4 17.7 10.9 15.4-.5 6.9 10.3 17.7 8 14.5 1.7 10.2 13.4 24.4 1.4 6.5-8.7 11.5 2.3 63.4 46 57 .1 12.6-1.5 15.9-3.8 4.8-21.5 15 .4 6.8-2.5 22.6 11.3 9.7-1.6 8 7.5.8 7.6h12l12 4.2 14.8-.6 13.3 2.3 6.2 10.4 7.8 32.5 3.7 16.3.3 7.3-13 17.4-8.1 14.4-2.8 10.7.5 9.2-1 10.4 3.1 8.1 11.6 13 3.6 12.4 10.2 8.7 1.6 10.7 4.8 14.7 2.3 11.4 9.3 4.3 14.9 13.6 7.6 10v10.8l.7 15.3 15 1.2 3.1 9-9.9 11.2-1 6.2-3.6 14.7.8 10.8-8.4 7-7.3 3.6 5.4 11.2 3.1 8.7-.5 7.2 1.5 3.3 1.8 10v7.8l4.7 9.9-10.6 2.7-26.4 8.5-11.6.5-7-3.8-12.5 10-17.6-1.1-5.7-15.8-10.5-4.1-8.5-1.8-6.5-3.5-9.3 2-8.7 1-4.8 7-5.8 4.1-9.7 11.3-9.7 2.7-2.4 7.7 12.4 8.4 12.9-3 16.5 7.8 9.5-1.9 10 6.4 1 16.1 10.4 11.1v4.7l-4.3 6.6-6 3.1.6 12.1-7.8 9.2-8.5 9-4.3 7.1h-15l-5 4-10.7-7.1-1.3 14.9-5 11.2 8.7 5.2 4.2 11.2.5 7.3 1.1 10.8-9.7 5.3-.5 9-3.9 4.8 2.4 9.1 5.1 7.7 1.6 12.2 14-8.1 3.3 9.5-4.1 7.1-7.6 3.1-.9 6.2 4.3 8.2h9l-.2 7-14 6v5.2l7.8 4.9-6.2 4.4-42.2.5-14.4 11.9-14.5 20.2-15.8 16.3-11.4 10-12.7 10-10.2.6-.5 36.6 3.6 6.5 5.7 3.1 3.6 6.2 1 13.5-12.1-10-7.5-3-10.4-5.2-14.9-4.9-15.6 3.1-10 3.3-9 4.9h-10.5l-7.2-1.4-11 7-15.6 3.6-6.5 4.8v10l-12.9 2.8-5.8 3-8.3-7.3-7.3-3.3-18.5 3.5-16.1-1.2-11 4.2-14.1-3-14.9-1.5-18.7 2.2-8.1.9-10.4 13-9-6.4-8.9 5-17.2 6.3-6 16-6.1 18.4-22 9-11 11.4-11 7.9-10.1 4-.7 7-6.6 9.3-6.5-2.4-9.5-10.6-7 .6-15.2-2.5-4-6.2-27.2 6.2-40.8-3.2-18-15.8-15-.9-10.7 1-21.6-13-15.4 4h-15.4l-14.4-6.7h-20.3l-14.6-8.7-13.5 1-7-3.8-13.6-.5H1022l-9.4-5.4-18.2 6.3-11.4.5-12.8-3.1-19.2-7.3-12.6-6.2-30.7-1.6-42.7-2-6.4-9.8-11.9-6.2-7.9 6.4-12.5-10.4-31.6 1.7-10.6-7.1-18.4-4.2-12.4-8.1-5-8.7-6.2-13.2-9.9-4-8.3-4.4-2.3-6.9v-7.5l4.9-6-12-21.6-11.6 5.6-6.4-8.2-12.4-5.9 3.4-10.2-5.7-8.3-1.4-24.4 19.7-2.3L706 752l-5-5-23 2-16.6 8.4-16 4.6-16.2 2.6-10.5 9.3-16.2 6-15.6 2-2.7 9.4-6.5-2-13.4-7.8-16.1-2-7.2-2.7-18.7 5.7-11.6-10.5-15.4 18-21.6-9.7-43.4 9-11 11-11.8 10.5-.6 11.1-6 11.9-3.7 9.5-11.2 17.5-8.8-1h-18.7l-11.8.5-15-4.5-11.3-7.1-9.9 1 9.6-15.7-13 1.2-9.1-13.5-11.6 1.6-17.5 5.9-21.7-4-6.8-14.5 8.1-15.5-10.2-9.5-10-9-4.8-3.7-8-4-15.5 22.2-7.6 5.1H184l-3 10-6.4 7.8-23.1 9.9-13.3-4-9.1-7.9-8.3-9.3-9.5-4.3-9.2-1.4-11-6-2.7-9 4.5-12v-4.7l-4.8-8.8-8.9-.5-12.9-9-9.9-1.1-19.5-8.8-15.4 3 6-31.8-13.2-13.1-3.4-17.7-6.4-6.2 9.9-7.5-13.5-8.1 19.6-20 3.9-18.3 12 2.3 7.8-6.8-6.8-17.2-1.4-9.2-15.2-6.8-2.6-8.5 11-4.6 11 1.7 12.2-4.7 8-11.2 13-12.4h7l2.5 9.7 4.5 3 7.4 4 13.4-2 8.5 8.3 6.8 6.2 1.8 9.9 10.8 1 5.9 9.3 10.7 4.7-.5 9.9-7.2 3.8 3 7 .4 11.2 16.8-3.1 18.2-3.1v6l-6 13.7V650l-7.9 7.2-.5 8 17.3-.6 38.6-30.9 4-8.6 11.4-10 11.8-13.7-1.6-11-10.8-19.6 4.4-11-6.3-8.7 17.1-4v12.5l20 7.3 13.8-12.5 9.9 2.8 11.9-1 4 5.6 10.1 3 1.9 8.4 8.8-1 24.5-7 2.5 8-9.4 12.1 15 1.6 14.2 18.7-5.3 15.1 39.4 1.4 18.4-13.3 15.3 1-4.6 11.5 17-.3 16.6-20.2h16.8l-5.1-6.5 11.4-14 35.2-2.7 1.5-15.8 17.7-12.9 8.8 4.2 25.8-1 16.1 4.6 5.4-10.1 34.5-4.3 53 3.7-2.5-8.8-2-26.3 20.9-10.7-2.6 14.6 20-3.4 19 3.6 11.7-2v10l14.8 16.3 15.3-6.5L808 520l34 1.4 7.5 8.8 11 13.1-5 10.2-.6 9.2 3 6.7 12 .5 25.3 29.1 10.7-2.7 4.8 3.6 13.3-9.7-8-10.9 7.4-11.2-3-9.1 6.2-6 .5-8.2 7.3-7.4.5-16-21.7-16.2-7.6 3.1-20.3 1.6-2.6-10.7 11.2-14v-8l17.8-20.3-1.4-9.7-9.1-9.6-9.3-19.7-8.1-7-7.6-2zm0 0"/></svg>
